public/img/company/account/flows.svg

<svg fill="none" height="25" viewBox="0 0 25 25" width="25" xmlns="http://www.w3.org/2000/svg"><rect fill="#a8c6da" height="25" rx="4" width="25"/><path d="m20.1282 16.8789v-1.9573c-.0005-.5897-.2351-1.1551-.6523-1.5721s-.9829-.6515-1.5729-.652h-4.1658v-3.57606c.6088-.17732 1.1323-.56979 1.4731-1.10431s.4756-1.17464.3793-1.80113c-.0963-.62648-.4172-1.1966-.9028-1.60418-.4857-.40757-1.103-.6248-1.737-.61122-.6339.01358-1.2414.25704-1.7091.68503-.4677.428-.7639 1.01134-.8332 1.64137-.0694.63003.0927 1.26379.4561 1.78323.3634.51943.9033.88913 1.5191 1.04022v3.54705h-4.28197c-.58999.0005-1.15568.235-1.57286.652-.41719.417-.65179.9824-.6523 1.5721v1.9573c-.60829.179-1.13072.573-1.46998 1.1085s-.47222 1.176-.3741 1.8022c.09811.6262.4206 1.1954.90741 1.6016.4868.4062 1.10472.6216 1.73865.6062.63394-.0154 1.24066-.2605 1.70717-.6899.4665-.4293.76097-1.0135.82856-1.6437.06758-.6302-.09632-1.2635-.46119-1.7819-.36486-.5184-.90581-.8866-1.52208-1.0359v-1.934c0-.2309.09174-.4522.25503-.6155.16329-.1632.38476-.2549.61569-.2549h4.28197v2.8063c-.6148.1511-1.1537.5204-1.5163 1.0391-.3627.5187-.5243 1.1515-.455 1.7805.0694.629.3652 1.2113.8322 1.6386.467.4272 1.0735.6702 1.7064.6838.633.0136 1.2493-.2033 1.7342-.6101.4849-.4069.8053-.9761.9016-1.6015.0963-.6255-.0382-1.2646-.3782-1.7983-.3401-.5338-.8627-.9258-1.4704-1.1031v-2.8256h4.1658c.231 0 .4524.0917.6157.2549s.2551.3846.2551.6154v1.9341c-.6152.1493-1.1552.5171-1.5193 1.0347-.3641.5177-.5276 1.15-.46 1.7792s.3617 1.2123.8275 1.6409 1.0715.6734 1.7044.6887c.6329.0154 1.2498-.1997 1.7359-.6052.486-.4054.8081-.9737.9062-1.5988.0981-.6252-.0345-1.2647-.3731-1.7994-.3385-.5347-.86-.9282-1.4672-1.1073z" fill="#fff"/></svg>

<svg width="25" height="25" viewBox="0 0 25 25" fill="none" xmlns="http://www.w3.org/2000/svg">
<rect width="25" height="25" rx="4" fill="#A8C6DA"/>
<path d="M20.1282 16.8789V14.9216C20.1277 14.3319 19.8931 13.7665 19.4759 13.3495C19.0587 12.9325 18.493 12.698 17.903 12.6975H13.7372V9.12144C14.346 8.94412 14.8695 8.55165 15.2103 8.01713C15.5511 7.48261 15.6859 6.84249 15.5896 6.216C15.4933 5.58952 15.1724 5.0194 14.6868 4.61182C14.2011 4.20425 13.5838 3.98702 12.9498 4.0006C12.3159 4.01418 11.7084 4.25764 11.2407 4.68563C10.773 5.11363 10.4768 5.69697 10.4075 6.327C10.3381 6.95703 10.5002 7.59079 10.8636 8.11023C11.227 8.62966 11.7669 8.99936 12.3827 9.15045V12.6975H8.10073C7.51074 12.698 6.94505 12.9325 6.52787 13.3495C6.11068 13.7665 5.87608 14.3319 5.87557 14.9216V16.8789C5.26728 17.0579 4.74485 17.4519 4.40559 17.9874C4.06633 18.5229 3.93337 19.1634 4.03149 19.7896C4.1296 20.4158 4.45209 20.985 4.9389 21.3912C5.4257 21.7974 6.04362 22.0128 6.67755 21.9974C7.31149 21.982 7.91821 21.7369 8.38472 21.3075C8.85122 20.8782 9.14569 20.294 9.21328 19.6638C9.28086 19.0336 9.11696 18.4003 8.75209 17.8819C8.38723 17.3635 7.84628 16.9953 7.23001 16.846V14.912C7.23001 14.6811 7.32175 14.4598 7.48504 14.2965C7.64833 14.1333 7.8698 14.0416 8.10073 14.0416H12.3827V16.8479C11.7679 16.999 11.229 17.3683 10.8664 17.887C10.5037 18.4057 10.3421 19.0385 10.4114 19.6675C10.4808 20.2965 10.7766 20.8788 11.2436 21.3061C11.7106 21.7333 12.3171 21.9763 12.95 21.9899C13.583 22.0035 14.1993 21.7866 14.6842 21.3798C15.1691 20.9729 15.4895 20.4037 15.5858 19.7783C15.6821 19.1528 15.5476 18.5137 15.2076 17.98C14.8675 17.4462 14.3449 17.0542 13.7372 16.8769V14.0513H17.903C18.134 14.0513 18.3554 14.143 18.5187 14.3062C18.682 14.4694 18.7738 14.6908 18.7738 14.9216V16.8557C18.1586 17.005 17.6186 17.3728 17.2545 17.8904C16.8904 18.4081 16.7269 19.0404 16.7945 19.6696C16.8621 20.2988 17.1562 20.8819 17.622 21.3105C18.0878 21.7391 18.6935 21.9839 19.3264 21.9992C19.9593 22.0146 20.5762 21.7995 21.0623 21.394C21.5483 20.9886 21.8704 20.4203 21.9685 19.7952C22.0666 19.17 21.934 18.5305 21.5954 17.9958C21.2569 17.4611 20.7354 17.0676 20.1282 16.8885V16.8789Z" fill="white"/>
</svg>
